Newaita-dark/.DP/32/guake-indicator.svg

<svg xmlns="http://www.w3.org/2000/svg" xmlns:xlink="http://www.w3.org/1999/xlink" width="32px" height="32px" viewBox="0 0 32 32" version="1.1">
<g id="surface1">
<path style=" stroke:none;fill-rule:nonzero;fill:rgb(93.333334%,93.333334%,93.333334%);fill-opacity:1;" d="M 5.292969 5.542969 C 4.558594 5.542969 3.96875 6.132812 3.96875 6.863281 L 3.96875 25.386719 C 3.96875 26.121094 4.558594 26.710938 5.292969 26.710938 L 26.460938 26.710938 C 27.191406 26.710938 27.785156 26.121094 27.785156 25.386719 L 27.785156 6.863281 C 27.785156 6.132812 27.191406 5.542969 26.460938 5.542969 Z M 13.214844 10.167969 C 13.574219 10.167969 13.914062 10.308594 14.160156 10.566406 L 18.792969 15.195312 C 19.050781 15.457031 19.191406 15.808594 19.175781 16.175781 C 19.160156 16.542969 18.996094 16.886719 18.71875 17.125 L 14.089844 21.097656 C 13.730469 21.410156 13.234375 21.511719 12.785156 21.355469 C 12.332031 21.199219 12.003906 20.8125 11.917969 20.34375 C 11.832031 19.878906 12.007812 19.398438 12.371094 19.097656 L 15.925781 16.050781 L 12.300781 12.425781 C 11.914062 12.054688 11.792969 11.484375 11.996094 10.988281 C 12.199219 10.492188 12.679688 10.167969 13.214844 10.167969 Z M 13.214844 10.167969 "/>
</g>
</svg>

<svg xmlns="http://www.w3.org/2000/svg" width="32pt" height="32pt" viewBox="0 0 32 32"><path d="M5.293 5.543a1.32 1.32 0 0 0-1.324 1.32v18.524c0 .734.59 1.324 1.324 1.324h21.168a1.32 1.32 0 0 0 1.324-1.324V6.863c0-.73-.59-1.32-1.324-1.32zm7.922 4.621c.36 0 .7.145.945.402l4.633 4.63c.258.257.398.617.383.98-.012.367-.18.71-.457.949l-4.633 3.969a1.317 1.317 0 0 1-1.3.261 1.314 1.314 0 1 1-.41-2.258l3.55-3.046-3.625-3.625a1.314 1.314 0 0 1-.305-1.438 1.32 1.32 0 0 1 1.219-.824zm0 0" fill="#bdbdbd"/></svg>
